X:1
T:[ID 2-126]
T:[ID 2-126]
T:Bezeichnung standardisiert: Menuet [mit Trio] Men\"uet Con Trio 3. In dieser Quelle auch als: Menuetto
T:Urheber unbekannt Datum in der hier transkribierten schriftlichen Quelle: 1767
C:Urheber unbekannt
C:Datum in der hier transkribierten schriftlichen Quelle: 1767
L:1/8
M:3/4
K:D
V:1 treble 
V:1
 D2 F2 A2 | d4 e2 | fe d2 c2 | d4 e2 | f2 D2 f2 | g2 E2 fg | a2 c2 d2 | e6 :: A2 c2 ce | A2 d2 df | %10
 A2 e2 eg | f4 e2 | d2 f2 a2 | d'2 dc d2 | Agfedc | d6 :|[M:3/4]"^Trio" !fermata!D4 A,D | F4 DF | %18
 A4 FA | d2 D2 D2 | A,2 C2 D2 | A,2 C2 D2 | A2 C2 D2 | A,6 :: a2 a^g a2 | A,2 A,2 A,2 | A2 GFED | %27
 A,2 A,2 A,2 | D4 A,D | F4 DF | A4 FA | d2 D2 D2 | A,2 C2 D2 | D6 :| %34

